img/triangle.svg

<?xml version="1.0" encoding="UTF-8"?>
<svg id="_レイヤー_1" xmlns="http://www.w3.org/2000/svg" version="1.1" viewBox="0 0 640 640">
  <!-- Generator: Adobe Illustrator 30.1.0, SVG Export Plug-In . SVG Version: 2.1.1 Build 136)  -->
  <defs>
    <style>
      .st0 {
        fill: #061138;
      }
    </style>
  </defs>
  <path class="st0" d="M300.3,440.8c12.6,10.2,31.1,9.5,42.8-2.2l128-128c9.2-9.2,11.9-22.9,6.9-34.9s-16.6-19.7-29.5-19.7h-256c-12.9,0-24.6,7.8-29.6,19.8s-2.2,25.7,7,34.8l128,128,2.4,2.2Z"/>
</svg>

<svg xmlns="http://www.w3.org/2000/svg" viewBox="0 0 640 640"><!--!Font Awesome Free 7.1.0 by @fontawesome - https://fontawesome.com License - https://fontawesome.com/license/free Copyright 2026 Fonticons, Inc.--><path fill="#061138" d="M300.3 440.8C312.9 451 331.4 450.3 343.1 438.6L471.1 310.6C480.3 301.4 483 287.7 478 275.7C473 263.7 461.4 256 448.5 256L192.5 256C179.6 256 167.9 263.8 162.9 275.8C157.9 287.8 160.7 301.5 169.9 310.6L297.9 438.6L300.3 440.8z"/></svg>
